packages/Snapp/src/HomeIcon/index.svg

<?xml version="1.0" encoding="UTF-8"?>
<svg width="24px" height="24px" viewBox="0 0 24 24" version="1.1" xmlns="http://www.w3.org/2000/svg" xmlns:xlink="http://www.w3.org/1999/xlink">
    <title>Icons/24/Home</title>
    <g id="Icons/24/Home" stroke="none" stroke-width="1" fill="none" fill-rule="evenodd">
        <rect id="Container" fill-opacity="0" fill="#D8D8D8" fill-rule="nonzero" x="0" y="0" width="24" height="24"></rect>
        <path d="M18.5,19 C18.7761424,19 19,18.7761424 19,18.5 L19,9.39444872 C19,9.33672641 19.0048906,9.28014636 19.0142801,9.22510034 L12.5734623,5.01652793 C12.2291422,4.77550382 11.7708578,4.77550382 11.4265377,5.01652793 L4.98571992,9.22510034 C4.99510939,9.28014636 5,9.33672641 5,9.39444872 L5,18.5 C5,18.7761424 5.22385763,19 5.5,19 L9,19 L9,14 C9,13.4477153 9.44771525,13 10,13 L14,13 C14.5522847,13 15,13.4477153 15,14 L15,19 L18.5,19 Z M21,18.5 C21,19.8807119 19.8807119,21 18.5,21 L14,21 C13.4477153,21 13,20.5522847 13,20 L13,15 L11,15 L11,20 C11,20.5522847 10.5522847,21 10,21 L5.5,21 C4.11928813,21 3,19.8807119 3,18.5 L3,10.3944487 C2.02228817,10.3944487 1.62556491,9.13589772 2.42653766,8.5752168 L10.279613,3.37806409 C11.3125734,2.65499177 12.6874266,2.65499177 13.720387,3.37806409 L21.5734623,8.5752168 C22.3744351,9.13589772 21.9777118,10.3944487 21,10.3944487 L21,18.5 Z" id="Combined-Shape" fill="#404040" fill-rule="nonzero"></path>
    </g>
</svg>

<svg viewBox="0 0 24 24" xmlns="http://www.w3.org/2000/svg" fill="currentColor" focusable="false">
  <path d="M18.5 19a.5.5 0 00.5-.5V9.394c0-.057.005-.114.014-.169l-6.44-4.208a1 1 0 00-1.147 0L4.986 9.225c.01.055.014.112.014.17V18.5a.5.5 0 00.5.5H9v-5a1 1 0 011-1h4a1 1 0 011 1v5h3.5zm2.5-.5a2.5 2.5 0 01-2.5 2.5H14a1 1 0 01-1-1v-5h-2v5a1 1 0 01-1 1H5.5A2.5 2.5 0 013 18.5v-8.106c-.978 0-1.374-1.258-.573-1.819l7.853-5.197a3 3 0 013.44 0l7.853 5.197c.801.56.405 1.82-.573 1.82V18.5z" fill="none"/>
</svg>
